public/assets/images/feature/10.svg

<svg width="58" height="60" viewBox="0 0 58 60" fill="none" xmlns="http://www.w3.org/2000/svg">
<path d="M51.1553 33.6636C51.1553 32.7363 51.7371 31.8909 52.5917 31.5636L56.0008 30.2363C56.1826 30.1636 56.319 30.0272 56.3826 29.8454C56.4462 29.6636 56.4371 29.4636 56.3462 29.3L52.7281 22.6363C52.9371 21.4818 53.0371 20.309 53.0281 19.1454C52.9371 9.68177 45.4917 1.69995 36.0826 0.963591C31.0371 0.572682 26.2281 2.19086 22.4644 5.49996H13.4917C13.2644 5.49996 13.0553 5.61814 12.9281 5.80905L7.52805 14.2454H2.7826C2.41896 14.2454 2.11896 14.5454 2.11896 14.909C2.11896 15.2727 2.41896 15.5727 2.7826 15.5727H7.90078C8.12805 15.5727 8.33715 15.4545 8.46442 15.2636L13.8644 6.82723H30.1826L34.519 8.71814C34.4462 8.96359 34.3917 9.20905 34.3917 9.48177C34.3917 10.9363 35.5735 12.1272 37.0371 12.1272C38.5008 12.1272 39.6826 10.9454 39.6826 9.48177C39.6826 8.01814 38.5008 6.83632 37.0371 6.83632C36.3281 6.83632 35.6917 7.11814 35.219 7.57268L30.5917 5.5545C30.5099 5.51814 30.419 5.49996 30.3281 5.49996H24.6281C27.9008 3.11814 31.8553 1.97268 35.9735 2.29086C44.7008 2.97268 51.6008 10.3818 51.6917 19.1636C51.7008 20.3272 51.5917 21.509 51.3644 22.6727C51.3281 22.8818 51.3917 23.0909 51.5371 23.2363L54.819 29.2636L52.1099 30.3181C50.719 30.8636 49.819 32.1727 49.819 33.6636V39.5545C49.819 40.1 49.3735 40.5454 48.8281 40.5454H42.819C42.4553 40.5454 42.1553 40.8454 42.1553 41.209V46.7363H26.3371V34.6727C26.3371 34.4363 26.2099 34.2181 26.0008 34.1C24.8735 33.4545 23.8281 32.6727 22.8917 31.7727C22.8826 31.7636 22.8826 31.7636 22.8735 31.7545C22.7281 31.6272 22.5553 31.4454 22.3826 31.2545H27.4735L31.9099 37.9C32.0371 38.0818 32.2371 38.2 32.4644 38.2H35.8553C36.1553 39.3363 37.1735 40.1727 38.4008 40.1727C39.8553 40.1727 41.0462 38.9909 41.0462 37.5272C41.0462 36.0727 39.8644 34.8818 38.4008 34.8818C37.1735 34.8818 36.1553 35.7272 35.8553 36.8545H32.819L29.0735 31.2454H34.7008C35.0008 32.3818 36.019 33.2181 37.2462 33.2181C38.7008 33.2181 39.8917 32.0363 39.8917 30.5727C39.8917 29.1181 38.7099 27.9272 37.2462 27.9272C36.019 27.9272 35.0008 28.7727 34.7008 29.9H13.4826L7.61896 21.5636C7.49169 21.3909 7.29169 21.2818 7.07351 21.2818H2.7826C2.41896 21.2818 2.11896 21.5818 2.11896 21.9454C2.11896 22.309 2.41896 22.609 2.7826 22.609H6.72805L12.5917 30.9454C12.719 31.1181 12.919 31.2272 13.1371 31.2272H20.619C21.0917 31.8 21.5917 32.3727 21.9826 32.7181C22.9008 33.5909 23.919 34.3636 25.0008 35.0181V46.7181C23.6008 46.7545 22.4826 47.9 22.4826 49.3636C22.4826 49.8181 22.6099 50.2454 22.819 50.6181H15.1008L15.2371 49.8272C15.719 49.6727 16.1826 49.4818 16.6281 49.2363L17.7008 50.009C17.9644 50.2 18.3371 50.1727 18.5735 49.9363L20.4371 47.9909C20.6553 47.7636 20.6826 47.4181 20.5099 47.1545L19.7462 46.009C20.0008 45.5181 20.1917 45.0272 20.3371 44.5181L21.6281 44.2818C21.9462 44.2272 22.1735 43.9454 22.1735 43.6272V40.8818C22.1735 40.5636 21.9462 40.2818 21.6281 40.2272L20.3462 39.9909C20.2008 39.4818 20.0008 38.9818 19.7553 38.5L20.519 37.3545C20.6917 37.0909 20.6644 36.7454 20.4462 36.5181L18.5826 34.5727C18.3553 34.3363 17.9826 34.3 17.7099 34.4909L16.6371 35.2636C16.2008 35.0181 15.7371 34.8181 15.2462 34.6727L15.0099 33.3C14.9553 32.9818 14.6735 32.7454 14.3553 32.7454H11.7281C11.4008 32.7454 11.1281 32.9818 11.0735 33.3L10.8371 34.6727C10.3462 34.8272 9.8826 35.0181 9.43715 35.2727L8.36442 34.5C8.10078 34.309 7.71896 34.3363 7.49169 34.5818L5.63715 36.5272C5.41896 36.7545 5.39169 37.1 5.56442 37.3545L6.32805 38.5C6.07351 38.9818 5.87351 39.4818 5.72805 39.9909L4.45533 40.2272C4.13715 40.2818 3.90987 40.5636 3.90987 40.8818V43.6272C3.90987 43.9454 4.13715 44.2272 4.45533 44.2818L5.73714 44.5181C5.8826 45.0272 6.07351 45.5272 6.32805 46.009L5.56442 47.1545C5.39169 47.4181 5.41896 47.7636 5.63715 47.9818L7.49169 49.9272C7.71896 50.1727 8.10078 50.2 8.36442 50.009L9.43715 49.2363C9.8826 49.4818 10.3462 49.6818 10.8371 49.8363L10.9735 50.6272H1.46442C1.10078 50.6272 0.800781 50.9272 0.800781 51.2909C0.800781 51.6545 1.10078 51.9545 1.46442 51.9545H45.8735C46.4826 51.9545 46.9826 52.4545 46.9826 53.0636C46.9826 53.6727 46.4826 54.1727 45.8735 54.1727H13.9008C13.8826 54.1727 13.8735 54.1818 13.8644 54.1818C13.8008 54.1818 13.7462 54.2 13.6917 54.2181C13.6735 54.2272 13.6462 54.2272 13.6281 54.2454C13.5553 54.2818 13.4917 54.3181 13.4371 54.3727C13.319 54.4909 13.2371 54.6636 13.2371 54.8454C13.2371 55.209 13.5371 55.509 13.9008 55.509H45.8826C47.2281 55.509 48.3281 54.409 48.3281 53.0636C48.3281 51.7181 47.2281 50.6181 45.8826 50.6181H45.6644C45.8735 50.2454 46.0008 49.8181 46.0008 49.3636V49.2909C46.0008 47.8909 44.8735 46.7545 43.4826 46.7181V41.8454H48.8371C50.119 41.8454 51.1644 40.8 51.1644 39.5181V33.6636H51.1553ZM37.0371 8.18177C37.7553 8.18177 38.3462 8.77268 38.3462 9.49086C38.3462 10.209 37.7553 10.8 37.0371 10.8C36.319 10.8 35.7281 10.209 35.7281 9.49086C35.7281 8.76359 36.3099 8.18177 37.0371 8.18177ZM38.4008 36.2272C39.119 36.2272 39.7099 36.8181 39.7099 37.5363C39.7099 38.2545 39.119 38.8454 38.4008 38.8454C37.6826 38.8454 37.0917 38.2545 37.0917 37.5363C37.0917 36.8181 37.6735 36.2272 38.4008 36.2272ZM37.2462 29.2818C37.9644 29.2818 38.5553 29.8727 38.5553 30.5909C38.5553 31.309 37.9644 31.9 37.2462 31.9C36.5281 31.9 35.9371 31.309 35.9371 30.5909C35.9371 29.8727 36.519 29.2818 37.2462 29.2818ZM9.75533 47.909C9.52805 47.7636 9.22806 47.7636 9.00078 47.9272L8.04624 48.6181L6.96442 47.4818L7.65533 46.4454C7.80078 46.2363 7.80078 45.9545 7.67351 45.7363C7.30987 45.1181 7.06442 44.4909 6.91896 43.8363C6.86442 43.5727 6.65533 43.3636 6.39169 43.3181L5.23714 43.109V41.4727L6.39169 41.2636C6.65533 41.2181 6.86442 41.0181 6.91896 40.7545C7.06442 40.0909 7.32805 39.4454 7.6826 38.8454C7.80987 38.6272 7.80987 38.3454 7.66442 38.1363L6.96442 37.0909L8.04624 35.9545L9.00078 36.6454C9.21896 36.809 9.51896 36.8181 9.75533 36.6636C10.3099 36.309 10.919 36.0454 11.5735 35.8909C11.8281 35.8272 12.0281 35.6181 12.0735 35.3545L12.2826 34.1181H13.7826L13.9917 35.3545C14.0371 35.6181 14.2281 35.8272 14.4917 35.8909C15.1371 36.0454 15.7462 36.309 16.3008 36.6636C16.5371 36.809 16.8281 36.8 17.0553 36.6454L18.0099 35.9545L19.1008 37.0909L18.4099 38.1272C18.2735 38.3363 18.2644 38.609 18.3917 38.8272C18.7462 39.4363 19.0008 40.0818 19.1462 40.7454C19.2008 41.009 19.4099 41.209 19.6735 41.2545L20.8281 41.4636V43.1L19.6644 43.3181C19.4008 43.3636 19.1917 43.5727 19.1371 43.8363C19.0008 44.4909 18.7553 45.109 18.3917 45.7454C18.2644 45.9636 18.2735 46.2363 18.4099 46.4454L19.1008 47.4818L18.0099 48.6181L17.0553 47.9272C16.8371 47.7636 16.5371 47.7545 16.3008 47.909C15.7462 48.2636 15.1371 48.5272 14.4917 48.6818C14.2371 48.7454 14.0371 48.9545 13.9917 49.2181L13.7826 50.4545H12.2735L12.0644 49.2181C12.019 48.9545 11.8281 48.7454 11.5644 48.6818C10.919 48.5272 10.3099 48.2636 9.75533 47.909ZM44.6735 49.3272V49.4C44.6735 50.0909 44.1099 50.6545 43.4099 50.6545H25.0735C24.3735 50.6545 23.8099 50.0909 23.8099 49.3272C23.8099 48.6363 24.3735 48.0727 25.0735 48.0727H43.4099C44.1008 48.0727 44.6735 48.6363 44.6735 49.3272Z" fill="#0F62FE"/>
<path d="M48.5549 19.3347C48.5549 19.6983 48.8549 19.9983 49.2185 19.9983C49.5821 19.9983 49.8821 19.6983 49.8821 19.3347C49.8821 13.9438 46.9912 8.89833 42.3276 6.15287C42.0094 5.96196 41.6003 6.07105 41.4185 6.38924C41.2276 6.70742 41.3367 7.11651 41.6549 7.29833C45.9094 9.80742 48.5549 14.4165 48.5549 19.3347Z" fill="#0F62FE"/>
<path d="M36.5652 4.17322C36.1924 4.12777 35.8652 4.38231 35.8197 4.74595C35.7743 5.10958 36.0288 5.44595 36.3924 5.4914C36.6743 5.52777 36.9561 5.57322 37.2288 5.62777C37.2742 5.63686 37.3106 5.63686 37.3561 5.63686C37.6652 5.63686 37.947 5.41867 38.0106 5.10049C38.0833 4.73686 37.847 4.3914 37.4833 4.31867C37.1743 4.26413 36.8742 4.21867 36.5652 4.17322Z" fill="#0F62FE"/>
<path d="M41.082 6.21829C41.2275 5.88193 41.0729 5.49102 40.7365 5.33647C40.4547 5.2092 40.1638 5.10011 39.8729 4.99102C39.5275 4.86375 39.1456 5.03647 39.0184 5.38193C38.8911 5.72738 39.0638 6.1092 39.4093 6.23647C39.6729 6.33647 39.9365 6.44557 40.2002 6.55466C40.2911 6.59102 40.382 6.6092 40.4638 6.6092C40.7275 6.61829 40.9729 6.46375 41.082 6.21829Z" fill="#0F62FE"/>
<path d="M24.7554 12.3533C25.0554 13.4897 26.0736 14.3261 27.3009 14.3261C28.7554 14.3261 29.9463 13.1442 29.9463 11.6806C29.9463 10.2261 28.7645 9.03516 27.3009 9.03516C26.0736 9.03516 25.0554 9.88061 24.7554 11.0079H15.8191C15.6009 11.0079 15.4009 11.117 15.2736 11.2897L10.4554 18.1442C10.4373 18.1715 10.4282 18.1988 10.4191 18.2261C10.41 18.2533 10.3918 18.2715 10.3827 18.2988C10.3282 18.4533 10.3282 18.617 10.3827 18.7624C10.3918 18.7897 10.4009 18.8079 10.4191 18.8352C10.4373 18.8624 10.4373 18.8897 10.4554 18.917L15.2736 25.7715C15.4009 25.9442 15.6009 26.0533 15.8191 26.0533H40.91C41.21 27.1897 42.2282 28.0261 43.4554 28.0261C44.91 28.0261 46.1009 26.8442 46.1009 25.3806C46.1009 23.917 44.9191 22.7352 43.4554 22.7352C42.2282 22.7352 41.21 23.5806 40.91 24.7079H28.6645L32.3554 19.1897H36.1645C36.4918 20.2715 37.4918 21.0624 38.6827 21.0624C40.1373 21.0624 41.3282 19.8806 41.3282 18.417C41.3282 16.9624 40.1463 15.7715 38.6827 15.7715C37.4191 15.7715 36.3645 16.6624 36.1009 17.8442H32.0009C31.7736 17.8442 31.5736 17.9533 31.4463 18.1442L27.0645 24.6988H16.1645L12.2827 19.1806H21.8191C22.1191 20.317 23.1373 21.1533 24.3645 21.1533C25.8191 21.1533 27.01 19.9715 27.01 18.5079C27.01 17.0533 25.8282 15.8624 24.3645 15.8624C23.1373 15.8624 22.1191 16.7079 21.8191 17.8352H12.2827L16.1645 12.317H24.7554V12.3533ZM27.3009 10.3806C28.0191 10.3806 28.61 10.9715 28.61 11.6897C28.61 12.4079 28.0191 12.9988 27.3009 12.9988C26.5827 12.9988 25.9918 12.4079 25.9918 11.6897C25.9918 10.9715 26.5736 10.3806 27.3009 10.3806ZM38.6736 17.1352C39.3918 17.1352 39.9827 17.7261 39.9827 18.4442C39.9827 19.1624 39.3918 19.7533 38.6736 19.7533C37.9554 19.7533 37.3645 19.1624 37.3645 18.4442C37.3645 17.7261 37.9554 17.1352 38.6736 17.1352ZM43.4554 24.0897C44.1736 24.0897 44.7645 24.6806 44.7645 25.3988C44.7645 26.117 44.1736 26.7079 43.4554 26.7079C42.7373 26.7079 42.1463 26.117 42.1463 25.3988C42.1463 24.6806 42.7373 24.0897 43.4554 24.0897ZM24.3736 17.2352C25.0918 17.2352 25.6827 17.8261 25.6827 18.5442C25.6827 19.2624 25.0918 19.8533 24.3736 19.8533C23.6554 19.8533 23.0645 19.2624 23.0645 18.5442C23.0645 17.8261 23.6463 17.2352 24.3736 17.2352Z" fill="#0F62FE"/>
<path d="M8.67273 19.2101C9.03636 19.2101 9.33636 18.9101 9.33636 18.5464C9.33636 18.1828 9.03636 17.8828 8.67273 17.8828H6.16364C5.8 17.8828 5.5 18.1828 5.5 18.5464C5.5 18.9101 5.8 19.2101 6.16364 19.2101H8.67273Z" fill="#0F62FE"/>
<path d="M16.8544 42.2905C16.8544 40.1087 15.1363 38.3359 13.0363 38.3359C10.9272 38.3359 9.20898 40.1087 9.20898 42.2905C9.20898 44.4723 10.9272 46.245 13.0363 46.245C15.1363 46.245 16.8544 44.4723 16.8544 42.2905ZM10.5272 42.2905C10.5272 40.845 11.6453 39.6632 13.0272 39.6632C14.3999 39.6632 15.5181 40.845 15.5181 42.2905C15.5181 43.7359 14.3999 44.9178 13.0272 44.9178C11.6544 44.9178 10.5272 43.7359 10.5272 42.2905Z" fill="#0F62FE"/>
<path d="M9.5924 38.9362C9.83785 38.6908 9.82876 38.309 9.5924 38.0635C9.35603 37.8271 8.96512 37.8181 8.71967 38.0635C8.4833 38.2999 8.4924 38.6908 8.72876 38.9271C8.97421 39.1726 9.35603 39.1726 9.5924 38.9362Z" fill="#0F62FE"/>
<path d="M16.456 45.8018C16.2196 46.0382 16.2287 46.4291 16.4651 46.6654C16.7014 46.9018 17.0924 46.9109 17.3287 46.6745C17.5742 46.4291 17.5651 46.0472 17.3287 45.8018C17.0924 45.5654 16.7015 45.5563 16.456 45.8018Z" fill="#0F62FE"/>
<path d="M7.56349 41.7539C7.22713 41.7539 6.94531 42.0175 6.94531 42.3721C6.94531 42.7085 7.22713 42.9721 7.56349 42.9721C7.89986 42.9721 8.18168 42.7085 8.18168 42.3721C8.17259 42.0266 7.89986 41.7539 7.56349 41.7539Z" fill="#0F62FE"/>
<path d="M18.5008 42.9721C18.8371 42.9721 19.1189 42.7085 19.1189 42.3721C19.1189 42.0266 18.8371 41.7539 18.5008 41.7539C18.1644 41.7539 17.8826 42.0175 17.8826 42.3721C17.8826 42.7085 18.1644 42.9721 18.5008 42.9721Z" fill="#0F62FE"/>
<path d="M8.72757 45.8018C8.49121 46.0382 8.48212 46.4291 8.72757 46.6745C8.96394 46.9109 9.35485 46.9018 9.59121 46.6654C9.82757 46.4291 9.83666 46.0382 9.6003 45.8018C9.35485 45.5563 8.97303 45.5654 8.72757 45.8018Z" fill="#0F62FE"/>
<path d="M17.3275 38.9271C17.5639 38.6908 17.573 38.2999 17.3366 38.0635C17.0912 37.8181 16.7094 37.8271 16.4639 38.0635C16.2275 38.2999 16.2184 38.6908 16.4639 38.9362C16.7003 39.1817 17.0912 39.1726 17.3275 38.9271Z" fill="#0F62FE"/>
<path d="M13.0381 47.2188C12.6926 47.2188 12.4199 47.5006 12.4199 47.8369C12.4199 48.1733 12.6836 48.4551 13.0381 48.4551C13.3745 48.4551 13.6381 48.1733 13.6381 47.8369C13.6381 47.5006 13.3745 47.2188 13.0381 47.2188Z" fill="#0F62FE"/>
<path d="M13.0381 37.5098C13.3745 37.5098 13.6381 37.228 13.6381 36.8916C13.6381 36.5553 13.3745 36.2734 13.0381 36.2734C12.6926 36.2734 12.4199 36.5553 12.4199 36.8916C12.4199 37.2371 12.6926 37.5098 13.0381 37.5098Z" fill="#0F62FE"/>
<path d="M38.7735 57.7539H19.2281C18.8645 57.7539 18.5645 58.0539 18.5645 58.4175C18.5645 58.7812 18.8645 59.0903 19.2281 59.0903H38.7735C39.1372 59.0903 39.4372 58.7903 39.4372 58.4266C39.4372 58.063 39.1372 57.7539 38.7735 57.7539Z" fill="#0F62FE"/>
<path d="M56.5378 50.6562H51.2105C50.8469 50.6562 50.5469 50.9562 50.5469 51.3199C50.5469 51.6835 50.8469 51.9835 51.2105 51.9835H56.5378C56.9014 51.9835 57.2014 51.6835 57.2014 51.3199C57.2014 50.9562 56.9014 50.6562 56.5378 50.6562Z" fill="#0F62FE"/>
<path d="M10.6005 54.2563C10.355 54.1472 10.055 54.2109 9.88232 54.4018C9.75504 54.5291 9.69141 54.6927 9.69141 54.8745C9.69141 55.0563 9.76413 55.22 9.88232 55.3472C10.0096 55.4745 10.1732 55.5381 10.355 55.5381C10.5369 55.5381 10.7005 55.4654 10.8278 55.3472C10.955 55.22 11.0187 55.0563 11.0187 54.8745C11.0187 54.6927 10.946 54.5291 10.8278 54.4018C10.755 54.3381 10.6823 54.2927 10.6005 54.2563Z" fill="#0F62FE"/>
</svg>

<svg xmlns="http://www.w3.org/2000/svg" width="58" height="60" fill="none" viewBox="0 0 58 60"><path fill="#0f62fe" d="M51.155 33.664c0-.928.582-1.773 1.437-2.1L56 30.236a.67.67 0 0 0 .345-.936l-3.618-6.664c.21-1.154.31-2.327.3-3.49C52.938 9.681 45.492 1.7 36.083.963 31.037.573 26.228 2.19 22.464 5.5h-8.972a.68.68 0 0 0-.564.31l-5.4 8.435H2.783c-.364 0-.664.3-.664.664s.3.664.664.664H7.9a.68.68 0 0 0 .563-.31l5.4-8.436h16.319l4.336 1.891a2.6 2.6 0 0 0-.127.764 2.65 2.65 0 0 0 2.645 2.645 2.64 2.64 0 0 0 2.646-2.645 2.64 2.64 0 0 0-2.646-2.646 2.6 2.6 0 0 0-1.818.737l-4.627-2.019a.7.7 0 0 0-.264-.054h-5.7a16.9 16.9 0 0 1 11.346-3.21c8.727.683 15.627 8.092 15.718 16.874.009 1.163-.1 2.345-.328 3.509a.64.64 0 0 0 .173.563l3.282 6.028-2.71 1.054a3.57 3.57 0 0 0-2.29 3.346v5.89a.993.993 0 0 1-.99.991h-6.01c-.364 0-.664.3-.664.664v5.527H26.337V34.673a.66.66 0 0 0-.336-.573 16 16 0 0 1-3.11-2.327c-.008-.01-.008-.01-.017-.018a7 7 0 0 1-.491-.5h5.09L31.91 37.9c.127.182.327.3.554.3h3.391a2.63 2.63 0 0 0 2.546 1.973 2.65 2.65 0 0 0 2.645-2.646 2.65 2.65 0 0 0-2.645-2.645 2.64 2.64 0 0 0-2.546 1.973H32.82l-3.746-5.61h5.628a2.63 2.63 0 0 0 2.545 1.973 2.65 2.65 0 0 0 2.646-2.645 2.65 2.65 0 0 0-2.646-2.646 2.64 2.64 0 0 0-2.545 1.973H13.483l-5.864-8.336a.68.68 0 0 0-.545-.282H2.783c-.364 0-.664.3-.664.663s.3.664.664.664h3.945l5.864 8.336a.68.68 0 0 0 .545.282h7.482c.473.573.973 1.146 1.364 1.491a17.7 17.7 0 0 0 3.018 2.3v11.7c-1.4.036-2.518 1.182-2.518 2.646 0 .454.127.881.336 1.254h-7.718l.136-.79a8 8 0 0 0 1.391-.592l1.073.773a.68.68 0 0 0 .872-.073l1.864-1.945a.67.67 0 0 0 .073-.837l-.764-1.145c.255-.49.446-.982.591-1.49l1.291-.237a.66.66 0 0 0 .546-.655v-2.745c0-.318-.228-.6-.546-.655l-1.282-.236a8.3 8.3 0 0 0-.59-1.491l.763-1.145a.67.67 0 0 0-.073-.837l-1.863-1.945a.68.68 0 0 0-.873-.082l-1.073.773a6.7 6.7 0 0 0-1.39-.591L15.01 33.3a.67.67 0 0 0-.655-.555h-2.627c-.327 0-.6.237-.655.555l-.236 1.373a7 7 0 0 0-1.4.6L8.364 34.5a.67.67 0 0 0-.872.082l-1.855 1.945a.66.66 0 0 0-.073.828l.764 1.145a7.8 7.8 0 0 0-.6 1.49l-1.273.237a.66.66 0 0 0-.545.655v2.745c0 .318.227.6.545.655l1.282.236c.146.51.337 1.01.591 1.491l-.764 1.145a.66.66 0 0 0 .073.828l1.855 1.945a.665.665 0 0 0 .872.082l1.073-.773q.667.369 1.4.6l.136.791H1.464c-.363 0-.663.3-.663.664s.3.664.663.664h44.41c.609 0 1.109.5 1.109 1.109s-.5 1.109-1.11 1.109H13.901c-.018 0-.027.009-.037.009a.5.5 0 0 0-.172.036c-.018.01-.046.01-.064.027a.7.7 0 0 0-.19.128.68.68 0 0 0-.2.472c0 .364.3.664.663.664h31.982c1.345 0 2.445-1.1 2.445-2.445 0-1.346-1.1-2.446-2.445-2.446h-.219c.21-.373.337-.8.337-1.254v-.073c0-1.4-1.127-2.536-2.518-2.573v-4.873h5.354a2.33 2.33 0 0 0 2.327-2.327v-5.854zM37.037 8.182c.718 0 1.31.59 1.31 1.309 0 .718-.592 1.309-1.31 1.309a1.315 1.315 0 0 1-1.309-1.31c0-.726.582-1.308 1.31-1.308m1.364 28.045c.718 0 1.309.591 1.309 1.31 0 .718-.591 1.308-1.31 1.308a1.309 1.309 0 0 1 .001-2.618m-1.155-6.945c.718 0 1.31.59 1.31 1.309 0 .718-.592 1.309-1.31 1.309s-1.309-.591-1.309-1.31a1.31 1.31 0 0 1 1.31-1.308M9.756 47.909a.67.67 0 0 0-.755.018l-.955.691-1.082-1.136.691-1.037a.67.67 0 0 0 .019-.709 6.5 6.5 0 0 1-.755-1.9.66.66 0 0 0-.527-.518l-1.155-.209v-1.636l1.155-.21a.65.65 0 0 0 .527-.508c.145-.664.41-1.31.764-1.91a.67.67 0 0 0-.019-.709l-.7-1.045 1.082-1.136.955.69a.66.66 0 0 0 .754.019 5.9 5.9 0 0 1 1.818-.773.67.67 0 0 0 .5-.536l.21-1.237h1.5l.209 1.236a.66.66 0 0 0 .5.537 5.9 5.9 0 0 1 1.809.773.69.69 0 0 0 .754-.019l.955-.69 1.09 1.136-.69 1.036a.67.67 0 0 0-.018.7c.354.61.609 1.255.754 1.918a.65.65 0 0 0 .527.51l1.155.209V43.1l-1.164.218a.66.66 0 0 0-.527.518 6.5 6.5 0 0 1-.745 1.91.67.67 0 0 0 .018.7l.69 1.036-1.09 1.136-.955-.69a.66.66 0 0 0-.754-.019 5.9 5.9 0 0 1-1.81.773.67.67 0 0 0-.5.536l-.208 1.236h-1.51l-.209-1.236a.66.66 0 0 0-.5-.536 5.9 5.9 0 0 1-1.809-.773m34.918 1.418v.073a1.26 1.26 0 0 1-1.264 1.255H25.074c-.7 0-1.264-.564-1.264-1.328 0-.69.564-1.254 1.264-1.254H43.41c.69 0 1.264.563 1.264 1.254"/><path fill="#0f62fe" d="M48.555 19.335c0 .363.3.663.663.663s.664-.3.664-.663c0-5.391-2.89-10.437-7.554-13.182a.657.657 0 0 0-.91.236.657.657 0 0 0 .237.91c4.254 2.508 6.9 7.117 6.9 12.036M36.565 4.173a.666.666 0 0 0-.173 1.318c.282.037.564.082.837.137a.6.6 0 0 0 .127.009.67.67 0 0 0 .655-.537.664.664 0 0 0-.528-.781c-.309-.055-.609-.1-.918-.146m4.517 2.045a.677.677 0 0 0-.346-.882c-.281-.127-.572-.236-.863-.345a.663.663 0 0 0-.855.39.663.663 0 0 0 .391.855c.264.1.528.21.791.319a.7.7 0 0 0 .264.054.65.65 0 0 0 .618-.39m-16.327 6.134a2.63 2.63 0 0 0 2.546 1.973 2.65 2.65 0 0 0 2.645-2.645 2.65 2.65 0 0 0-2.645-2.646 2.64 2.64 0 0 0-2.546 1.973H15.82a.68.68 0 0 0-.545.282l-4.819 6.854a.3.3 0 0 0-.036.082c-.009.027-.027.046-.036.073a.68.68 0 0 0 0 .463c.009.028.018.046.036.073s.018.055.036.082l4.819 6.854a.68.68 0 0 0 .545.282h25.09a2.63 2.63 0 0 0 2.545 1.973 2.65 2.65 0 0 0 2.646-2.645 2.64 2.64 0 0 0-2.646-2.646 2.64 2.64 0 0 0-2.545 1.973H28.665l3.69-5.518h3.81a2.63 2.63 0 0 0 2.518 1.872 2.65 2.65 0 0 0 2.645-2.645 2.65 2.65 0 0 0-2.645-2.646 2.65 2.65 0 0 0-2.582 2.073H32a.66.66 0 0 0-.555.3L27.064 24.7h-10.9l-3.881-5.518h9.536a2.63 2.63 0 0 0 2.546 1.972 2.65 2.65 0 0 0 2.645-2.645 2.65 2.65 0 0 0-2.646-2.646 2.64 2.64 0 0 0-2.545 1.973h-9.536l3.882-5.518h8.59zm2.546-1.972c.718 0 1.309.59 1.309 1.309 0 .718-.59 1.309-1.31 1.309a1.31 1.31 0 0 1 0-2.618m11.373 6.754c.718 0 1.309.591 1.309 1.31 0 .717-.591 1.308-1.31 1.308-.718 0-1.309-.59-1.309-1.309 0-.718.591-1.309 1.31-1.309m4.781 6.955c.719 0 1.31.59 1.31 1.309 0 .718-.591 1.309-1.31 1.309a1.316 1.316 0 0 1-1.309-1.31c0-.717.591-1.308 1.31-1.308m-19.081-6.855c.718 0 1.309.591 1.309 1.31 0 .717-.591 1.308-1.31 1.308-.718 0-1.309-.59-1.309-1.309a1.31 1.31 0 0 1 1.31-1.309M8.673 19.21c.363 0 .663-.3.663-.664 0-.363-.3-.663-.663-.663h-2.51c-.363 0-.663.3-.663.663s.3.664.664.664zm8.181 23.08c0-2.181-1.718-3.954-3.818-3.954-2.109 0-3.827 1.773-3.827 3.955 0 2.181 1.718 3.954 3.827 3.954 2.1 0 3.818-1.773 3.818-3.954m-6.327 0c0-1.445 1.118-2.627 2.5-2.627 1.373 0 2.491 1.182 2.491 2.628 0 1.445-1.118 2.627-2.49 2.627-1.374 0-2.5-1.182-2.5-2.627m-.936-3.356a.617.617 0 0 0-.872-.873.615.615 0 0 0 .009.864.606.606 0 0 0 .863.01m6.864 6.865a.615.615 0 0 0 .01.863.615.615 0 0 0 .863.01.617.617 0 0 0-.873-.873m-8.893-4.048a.61.61 0 1 0 0 1.218.61.61 0 0 0 .619-.6.625.625 0 0 0-.619-.618M18.5 42.972a.61.61 0 0 0 .619-.6.619.619 0 0 0-1.236 0c0 .337.281.6.618.6m-9.773 2.83a.617.617 0 0 0 0 .873.615.615 0 0 0 .863-.01.615.615 0 0 0 .01-.863.617.617 0 0 0-.873 0m8.6-6.875a.615.615 0 0 0 .009-.864.617.617 0 0 0-.873.873.6.6 0 0 0 .864-.009m-4.29 8.292a.619.619 0 0 0 0 1.236.61.61 0 0 0 .6-.618.61.61 0 0 0-.6-.618m0-9.709a.61.61 0 0 0 .6-.618.61.61 0 0 0-.6-.619.619.619 0 0 0 0 1.237m25.736 20.244H19.228a.667.667 0 0 0 0 1.336h19.545a.667.667 0 0 0 0-1.336m17.765-7.098H51.21c-.364 0-.664.3-.664.664s.3.663.664.663h5.327c.363 0 .663-.3.663-.663s-.3-.664-.663-.664m-45.937 3.6a.64.64 0 0 0-.718.146.65.65 0 0 0-.19.472.7.7 0 0 0 .19.473.65.65 0 0 0 .473.191.7.7 0 0 0 .473-.19.65.65 0 0 0 .19-.474.7.7 0 0 0-.19-.472.9.9 0 0 0-.227-.146"/></svg>
